svg/400/rounded/girl-fill.svg

<svg xmlns="http://www.w3.org/2000/svg" width="48" height="48" viewBox="0 -960 960 960"><path d="M479.899-680Q455-680 437.5-697.601t-17.5-42.5Q420-765 437.601-782.5t42.5-17.5Q505-800 522.5-782.399t17.5 42.5Q540-715 522.399-697.5t-42.5 17.5ZM420-190v-150h-29q-16 0-24.5-13t-3.5-27l71-208q5-14 17.627-23 12.626-9 28.5-9 15.873 0 28.373 9 12.5 9 17.5 23l71 208q5 14-3.5 27T569-340h-29v150q0 12.75-8.646 21.375T509.927-160h-60.146Q437-160 428.5-168.625 420-177.25 420-190Z"/></svg>

<svg xmlns="http://www.w3.org/2000/svg" width="48" height="48" viewBox="0 -960 960 960"><path d="M479.9-680q-24.9 0-42.4-17.6T420-740.1q0-24.9 17.6-42.4t42.5-17.5q24.9 0 42.4 17.6t17.5 42.5q0 24.9-17.6 42.4T479.9-680ZM420-190v-150h-29q-16 0-24.5-13t-3.5-27l71-208q5-14 17.63-23 12.62-9 28.5-9 15.87 0 28.37 9 12.5 9 17.5 23l71 208q5 14-3.5 27T569-340h-29v150q0 12.75-8.65 21.37-8.64 8.63-21.42 8.63h-60.15q-12.78 0-21.28-8.63-8.5-8.62-8.5-21.37Z"/></svg>
